X:1
T: Polska efter Per Johan Arnström, variant
R:Polska
S:Efter Per Johan Arnström
Z:Anton Teljebäck 2009-09-02
O:Bäsksjö, Vilhelmina, Lappland
M:3/4
L:1/8
K:Am
|: e>e (3dcd e>e | (3e=fe (3dcd e>B | c>e (3ded c>c | B>B A<A ^G>E |
 E>e d>d e>e | (3e=fe (3dcd e>B | c>e (3ded c>B | ^G2 A4 :|
|: E>B c>B ^G>A | (3BcB (3ABA ^G>E | E>B c>B ^G>A | B>B (3dBd e2 |
 B>d c>B ^G>A | (3BcB (3ABA ^G>E | E>B c>B ^G>A | B<^G A4 :| 

